Origami/48x48/apps/bandcamp.svg

<svg width="48" height="48" version="1" xmlns="http://www.w3.org/2000/svg">
 <path d="m10.012493 10.999994a6.0130939 6.0006 0 0 0 -6.012493 6v16a6.0130939 6.0006 0 0 0 6.012493 6h4.008328a6.0130939 6.0006 0 0 0 1.238902 -0.130859c0.253733 0.01688 0.492798 0.130085 0.747648 0.130859a6.0130939 6.0006 0 0 0 0.01761 0c2.900946 0 5.489586-1.185771 7.58216-2.935547 2.365388 1.811449 5.278293 2.935547 8.451158 2.935547a6.0130939 6.0006 0 0 0 0.0098 0c4.994926-0.0076 9.629299-2.683247 12.126759-7a6.0130939 6.0006 0 0 0 -0.733961 -6.998047 6.0130939 6.0006 0 0 0 0.737861 -7.001953c-2.498673-4.318845-7.137236-6.994836-12.134588-7a6.0130939 6.0006 0 0 0 -0.0059 0c-4.381529 0-8.282511 2.105639-10.866328 5.302734-0.418511-0.205272-0.838945-0.349693-1.28196-0.505859a6.0130939 6.0006 0 0 0 -5.889161 -4.796875z" style="opacity:.2"/>
 <path d="m10.012493 10a6.0130939 6.0006 0 0 0 -6.012493 6v16a6.0130939 6.0006 0 0 0 6.012493 6h4.008328a6.0130939 6.0006 0 0 0 1.238902 -0.130859c0.253733 0.01688 0.492798 0.130085 0.747648 0.130859a6.0130939 6.0006 0 0 0 0.01761 0c2.900946 0 5.489586-1.185771 7.58216-2.935547 2.365388 1.811449 5.278293 2.935547 8.451158 2.935547a6.0130939 6.0006 0 0 0 0.0098 0c4.994926-0.0076 9.629299-2.683247 12.126759-7a6.0130939 6.0006 0 0 0 -0.733961 -6.998047 6.0130939 6.0006 0 0 0 0.737861 -7.001953c-2.498673-4.318845-7.137236-6.994836-12.134588-7a6.0130939 6.0006 0 0 0 -0.0059 0c-4.381529 0-8.282511 2.105639-10.866328 5.302734-0.418511-0.205272-0.838945-0.349693-1.28196-0.505859a6.0130939 6.0006 0 0 0 -5.889161 -4.796875z" style="fill:#4f4f4f"/>
 <rect x="8" y="7.99" width="32" height="32" style="fill:none"/>
 <path d="m10 17v10 6h4v-0.349609a6 6 0 0 0 2 0.349609 6 6 0 0 0 6 -6 6 6 0 0 0 -6 -6 6 6 0 0 0 -2 0.351562v-4.351562h-4zm22 0a8 8 0 0 0 -8 8 8 8 0 0 0 8 8 8 8 0 0 0 6.916016 -4h-6.916016a4 4 0 0 1 -4 -4 4 4 0 0 1 4 -4h6.919922a8 8 0 0 0 -6.919922 -4zm-16 8a2 2 0 0 1 2 2 2 2 0 0 1 -2 2 2 2 0 0 1 -2 -2 2 2 0 0 1 2 -2z" style="opacity:.2"/>
 <g transform="translate(-12)" style="fill:#74bed2">
  <path transform="translate(12)" d="m10 16v10 6h4v-0.349609a6 6 0 0 0 2 0.349609 6 6 0 0 0 6 -6 6 6 0 0 0 -6 -6 6 6 0 0 0 -2 0.351562v-4.351562h-4zm22 0a8 8 0 0 0 -8 8 8 8 0 0 0 8 8 8 8 0 0 0 6.916016 -4h-6.916016a4 4 0 0 1 -4 -4 4 4 0 0 1 4 -4h6.919922a8 8 0 0 0 -6.919922 -4zm-16 8a2 2 0 0 1 2 2 2 2 0 0 1 -2 2 2 2 0 0 1 -2 -2 2 2 0 0 1 2 -2z" style="fill:#74bed2"/>
  <path transform="translate(12)" d="m10 16v10 6h4v-0.349609a6 6 0 0 0 2 0.349609 6 6 0 0 0 6 -6 6 6 0 0 0 -6 -6 6 6 0 0 0 -2 0.351562v-4.351562h-4zm22 0a8 8 0 0 0 -8 8 8 8 0 0 0 8 8 8 8 0 0 0 6.916016 -4h-6.916016a4 4 0 0 1 -4 -4 4 4 0 0 1 4 -4h6.919922a8 8 0 0 0 -6.919922 -4zm-16 8a2 2 0 0 1 2 2 2 2 0 0 1 -2 2 2 2 0 0 1 -2 -2 2 2 0 0 1 2 -2z" style="fill:none"/>
 </g>
 <path d="m10.011719 10a6.0130939 6.0006 0 0 0 -6.011719 6v1a6.0130939 6.0006 0 0 1 6.011719 -6h4.009765a6.0130939 6.0006 0 0 1 5.888672 4.796875c0.443015 0.156166 0.862739 0.300587 1.28125 0.505859 2.583817-3.197095 6.485659-5.302734 10.867188-5.302734a6.0130939 6.0006 0 0 1 0.005859 0c4.997352 0.005164 9.636093 2.681155 12.134766 7a6.0130939 6.0006 0 0 1 0.773437 2.470703 6.0130939 6.0006 0 0 0 -0.773437 -3.470703c-2.498673-4.318845-7.137414-6.994836-12.134766-7a6.0130939 6.0006 0 0 0 -0.005859 0c-4.381529 0-8.283371 2.105639-10.867188 5.302734-0.418511-0.205272-0.838235-0.349693-1.28125-0.505859a6.0130939 6.0006 0 0 0 -5.888672 -4.796875h-4.009765zm33.847656 14.507812a6.0130939 6.0006 0 0 1 -0.398437 0.494141 6.0130939 6.0006 0 0 1 1.509765 3.472656 6.0130939 6.0006 0 0 0 -1.111328 -3.966797z" style="fill:#ffffff;opacity:.1"/>
</svg>

<svg xmlns="http://www.w3.org/2000/svg" width="48" height="48" version="1">
 <path style="opacity:0.2" d="m 10.012493,10.999994 a 6.0130939,6.0006 0 0 0 -6.012493,6 v 10 6 a 6.0130939,6.0006 0 0 0 6.012493,6 h 4.008328 a 6.0130939,6.0006 0 0 0 1.238902,-0.130859 c 0.253733,0.01688 0.492798,0.130085 0.747648,0.130859 a 6.0130939,6.0006 0 0 0 0.01761,0 c 2.900946,0 5.489586,-1.185771 7.58216,-2.935547 2.365388,1.811449 5.278293,2.935547 8.451158,2.935547 a 6.0130939,6.0006 0 0 0 0.0098,0 c 4.994926,-0.0076 9.629299,-2.683247 12.126759,-7 a 6.0130939,6.0006 0 0 0 -0.733961,-6.998047 6.0130939,6.0006 0 0 0 0.737861,-7.001953 c -2.498673,-4.318845 -7.137236,-6.994836 -12.134588,-7 a 6.0130939,6.0006 0 0 0 -0.0059,0 c -4.381529,0 -8.282511,2.105639 -10.866328,5.302734 -0.418511,-0.205272 -0.838945,-0.349693 -1.28196,-0.505859 a 6.0130939,6.0006 0 0 0 -5.889161,-4.796875 z"/>
 <path style="fill:#4f4f4f" d="M 10.012493,10 A 6.0130939,6.0006 0 0 0 4,16 v 10 6 a 6.0130939,6.0006 0 0 0 6.012493,6 h 4.008328 a 6.0130939,6.0006 0 0 0 1.238902,-0.130859 c 0.253733,0.01688 0.492798,0.130085 0.747648,0.130859 a 6.0130939,6.0006 0 0 0 0.01761,0 c 2.900946,0 5.489586,-1.185771 7.58216,-2.935547 C 25.972529,36.875902 28.885434,38 32.058299,38 a 6.0130939,6.0006 0 0 0 0.0098,0 c 4.994926,-0.0076 9.629299,-2.683247 12.126759,-7 A 6.0130939,6.0006 0 0 0 43.460897,24.001953 6.0130939,6.0006 0 0 0 44.198758,17 C 41.700085,12.681155 37.061522,10.005164 32.06417,10 a 6.0130939,6.0006 0 0 0 -0.0059,0 c -4.381529,0 -8.282511,2.105639 -10.866328,5.302734 -0.418511,-0.205272 -0.838945,-0.349693 -1.28196,-0.505859 A 6.0130939,6.0006 0 0 0 14.020821,10 Z"/>
 <rect style="fill:none" width="32" height="32" x="8" y="7.99"/>
 <path style="opacity:0.2" d="m 10,17 0,10 0,6 4,0 0,-0.349609 A 6,6 0 0 0 16,33 6,6 0 0 0 22,27 6,6 0 0 0 16,21 6,6 0 0 0 14,21.351562 L 14,17 10,17 Z m 22,0 a 8,8 0 0 0 -8,8 8,8 0 0 0 8,8 8,8 0 0 0 6.916016,-4 L 32,29 a 4,4 0 0 1 -4,-4 4,4 0 0 1 4,-4 l 6.919922,0 A 8,8 0 0 0 32,17 Z m -16,8 a 2,2 0 0 1 2,2 2,2 0 0 1 -2,2 2,2 0 0 1 -2,-2 2,2 0 0 1 2,-2 z"/>
 <g style="fill:#74bed2" transform="translate(-12,0)">
  <path style="fill:#74bed2" d="M 10 16 L 10 26 L 10 32 L 14 32 L 14 31.650391 A 6 6 0 0 0 16 32 A 6 6 0 0 0 22 26 A 6 6 0 0 0 16 20 A 6 6 0 0 0 14 20.351562 L 14 16 L 10 16 z M 32 16 A 8 8 0 0 0 24 24 A 8 8 0 0 0 32 32 A 8 8 0 0 0 38.916016 28 L 32 28 A 4 4 0 0 1 28 24 A 4 4 0 0 1 32 20 L 38.919922 20 A 8 8 0 0 0 32 16 z M 16 24 A 2 2 0 0 1 18 26 A 2 2 0 0 1 16 28 A 2 2 0 0 1 14 26 A 2 2 0 0 1 16 24 z" transform="translate(12)"/>
  <path style="fill:none" d="M 10 16 L 10 26 L 10 32 L 14 32 L 14 31.650391 A 6 6 0 0 0 16 32 A 6 6 0 0 0 22 26 A 6 6 0 0 0 16 20 A 6 6 0 0 0 14 20.351562 L 14 16 L 10 16 z M 32 16 A 8 8 0 0 0 24 24 A 8 8 0 0 0 32 32 A 8 8 0 0 0 38.916016 28 L 32 28 A 4 4 0 0 1 28 24 A 4 4 0 0 1 32 20 L 38.919922 20 A 8 8 0 0 0 32 16 z M 16 24 A 2 2 0 0 1 18 26 A 2 2 0 0 1 16 28 A 2 2 0 0 1 14 26 A 2 2 0 0 1 16 24 z" transform="translate(12)"/>
 </g>
 <path style="opacity:0.1;fill:#ffffff" d="M 10.011719 10 A 6.0130939 6.0006 0 0 0 4 16 L 4 17 A 6.0130939 6.0006 0 0 1 10.011719 11 L 14.021484 11 A 6.0130939 6.0006 0 0 1 19.910156 15.796875 C 20.353171 15.953041 20.772895 16.097462 21.191406 16.302734 C 23.775223 13.105639 27.677065 11 32.058594 11 A 6.0130939 6.0006 0 0 1 32.064453 11 C 37.061805 11.005164 41.700546 13.681155 44.199219 18 A 6.0130939 6.0006 0 0 1 44.972656 20.470703 A 6.0130939 6.0006 0 0 0 44.199219 17 C 41.700546 12.681155 37.061805 10.005164 32.064453 10 A 6.0130939 6.0006 0 0 0 32.058594 10 C 27.677065 10 23.775223 12.105639 21.191406 15.302734 C 20.772895 15.097462 20.353171 14.953041 19.910156 14.796875 A 6.0130939 6.0006 0 0 0 14.021484 10 L 10.011719 10 z M 43.859375 24.507812 A 6.0130939 6.0006 0 0 1 43.460938 25.001953 A 6.0130939 6.0006 0 0 1 44.970703 28.474609 A 6.0130939 6.0006 0 0 0 43.859375 24.507812 z"/>
</svg>
